X:1
T:The Morpeth Rant
L:1/8
M:4/4
I:linebreak $
K:D
V:1 treble 
V:1
 A2 | d2 AG FDFA | BGBd cABc | d2 AG FDFA | Bdce d2 A2 | d2 AG FDFA | BGBd cABc |$ d2 AG FDFA | %8
 (3Bcd ce d2 de | f2 fe fgaf | gfed cd e2 | f2 fe fgaf | edcB A2 Bc |$ d2 AG FDFA | BGBd cABc | %15
 d2 AG FDFA | Bdce d2 || %17
